!!!!SEGMENT: pl-kk--kk-i-385--001_anonim--tractus.krn
!!!cenid: 17xx:1981
!!!COM: Anonim
!!!COM-rismid: pe30004985
!!!CDT:
!!!CNT:
!!!OTL: Tractus
!!!PDT:
!!!AGN: Sacred
!!!SMS-siglum: PL-Kk
!!!SMS-shelfmark: Kk.I.385
!!!SMS-shelfwork: 001 W
!!!SMS-variant:
!!!SMS-altvar:
!!!NIFC-rismid: 1001143493
!!!URL-scan: http://repozytorium.nifc.pl/skany/pl-kk-nut--i-385
!!!ONB-nifc: UWAGA: numeracja zgodna z numeracją utworów w źródle
!!!key:
**kern	**text	**kern	**text	**kern	**text
*part3	*part3	*part2	*part2	*part1	*part1
*staff3	*staff3	*staff2	*staff2	*staff1	*staff1
*Itenor	*	*Ialto	*	*Isoprn	*
*I"Tenore.	*	*I"Alto.	*	*I"Soprano.	*
*I'T	*	*I'A	*	*I'S	*
*clefC4	*	*clefC3	*	*clefC1	*
*k[b-e-a-]	*	*k[b-e-a-]	*	*k[e-a-e-]	*
*E-:	*	*E-:	*	*E-:	*
*M3/2	*	*M3/2	*	*M3/2	*
=1	=1	=1	=1	=1	=1
*2\right	*	*2\right	*	*2\right	*
!	!	!LO:TX:a:t=1.mmo	!	!	!
!LO:TX:a:t=1.munoo	!	!LO:TX:a:t=in E.♭.	!	!LO:TX:a:t=1.mmo	!
!LO:TX:a:t=Tractus post Septuagesimam.	!	!LO:TX:a:t=Tractus post Septuagesim.	!	!LO:TX:a:t=Tractus post Septuagesim	!
!	!	!LO:TX:a:t=P:problem=znaki B- e- a-	!	!LO:TX:a:t=P:problem=znaki e- a- ee-	!
2B-\	Gau-	2g\	Gau-	2ee-\	Gau-
2B-\	-de	2g\	-de	2ee-\	-de
2B-\	Ma-	2f\	Ma-	2dd\	Ma-
=2	=2	=2	=2	=2	=2
1B-	-ri-	1g	-ri-	1ee-	-ri-
2c\	-a	2f\	-a	2ee-\	-a
=3	=3	=3	=3	=3	=3
1B-	vir-	1f	Vir-	1ee-	Vir-
2B-\	-go	2f\	-go	2dd\	-go,
=4	=4	=4	=4	=4	=4
2B-\	gau-	2f\	gau-	2dd\	gau-
2B-\	-de	2f\	-de	2dd\	-de
2An\	Ma-	2f\	Ma-	2cc\	Ma-
=5	=5	=5	=5	=5	=5
1B-	-ri-	1f	-ri-	1dd	-ri-
2B-\	-a	2g\	-a	2cc\	-a
=6	=6	=6	=6	=6	=6
1B-	vir-	1f	Vir-	1cc	Vir-
2An\	-go	2f\	-go	2cc\	-go
!LO:LB:g=original	!	!LO:LB:g=original	!	!LO:LB:g=original	!
=7	=7	=7	=7	=7	=7
2r	.	2r	.	2r	.
2B-\	cun-	2f\	cun-	2dd\	cun-
!	!	!	!	!LO:SIC:v:s=2b-	!
2e-\	-ctas	2g\	-ctas	2b\	-ctas
=8	=8	=8	=8	=8	=8
!	!	!	!	!LO:SIC:v:s=2.b-	!
2.d\	he-	2.f\	he-	2.b\	he-
4c\	-re-	4e-\	-re-	4cc\	-re-
2B-\	-ses	2f\	-ses	2dd\	-ses
=9	=9	=9	=9	=9	=9
1c	so-	1e-	so-	1g	so-
2An\	-la	2f\	-la	2cc\	-la
=10	=10	=10	=10	=10	=10
2B-\	in-	2b-\	in-	2dd\	in-
2c\	-te-	2an\	-te-	2ee-\	-te-
2d\	-re-	2b-\	-re-	2ff\	-re-
=11	=11	=11	=11	=11	=11
2e-\	-mi-	1b-	-mi-	4ee-\	-mi-
.	.	.	.	4dd\	.
2f\	.	.	.	1cc	.
2F/	.	2an\	.	.	.
=12	=12	=12	=12	=12	=12
2B-\	-sti	2b-\	-sti	2dd\	-sti
!	!	!	!	!LO:SIC:v:s=2b-	!
2e-\	cun-	2g\	cun-	2b\	cun-
2e-\	-ctas	2a-X\	-ctas	2cc\	-ctas
!LO:LB:g=original	!	!	!	!LO:LB:g=original	!
=13	=13	=13	=13	=13	=13
!	!	!	!	!LO:SIC:v:s=2.b-	!
2.e-\	he-	2.e-\	he-	2.b\	he-
4d\	-re-	4f\	-re-	4a-\	-re-
!	!	!LO:LB:g=original	!	!LO:SIC:v:s=2b-	!
2e-\	-ses	2g\	-ses	2b\	-ses
=14	=14	=14	=14	=14	=14
2c\	so-	1a-X	so-	1cc	so-
2f\	-la	.	.	.	.
!	!	!	!	!LO:SIC:v:s=2b-	!
2f\	in-	2f\	-la	2b\	-la
=15	=15	=15	=15	=15	=15
2B-\	-ter-	2g\	in-	2ee-\	in-
2d\	.	2a-\	-te-	2dd\	-te-
2B-\	-re-	2b-\	-re-	2ee-\	-re-
=16	=16	=16	=16	=16	=16
2c\	-mi-	4a-\	-mi-	1ee-	-mi-
.	.	4g\	.	.	.
1B-	.	1f	.	.	.
.	.	.	.	2dd\	.
=17	=17	=17	=17	=17	=17
2B-\	-sti	2g\	-sti	2ee-\	-sti
1B-	Que	1e-	Que	1cc	Que
=18	=18	=18	=18	=18	=18
!	!	!	!	!LO:SIC:v:s=2.b-	!
2.e-\	Ga-	2.e-\	Ga-	2.b\	ga-
!	!	!	!	!LO:SIC:v:s=4b-	!
4e-\	-bri-	4e-\	-bri-	4b\	-bri-
2c\	-e-	2e-\	-e-	2cc\	-e-
=19	=19	=19	=19	=19	=19
!	!	!	!	!LO:SIC:v:s=2b-	!
2B-\	-lis	1e-	-lis	2b\	-lis
!LO:LB:g=original	!	!	!	!	!
2e-\	.	.	.	2cc\	.
!	!	!	!	!LO:LB:g=original	!
2A-X\	ar-	2f\	ar-	2dd\	ar-
!	!	!LO:LB:g=original	!	!	!
=20	=20	=20	=20	=20	=20
2.B-\	-han-	2.g\	-han-	2.ee-\	-han-
4A-X\	-ge-	4f\	-ge-	4dd\	ge-
2B-\	-li	2e-\	-li	2cc\	-li
=21	=21	=21	=21	=21	=21
1A-X	dic-	1e-	dic-	1cc	dic-
2A-\	-tis	2f\	-tis	2dd\	-tis
=22	=22	=22	=22	=22	=22
1B-	cre-	1f	cre-	1dd	cre-
2B-\	-di-	2g\	-di-	2ee-\	-di-
=23	=23	=23	=23	=23	=23
2G/	-di-	2g\	-di-	1ee-	-dis-
1B-	.	2b-\	.	.	.
.	.	2f\	.	2dd\	.
=24	=24	=24	=24	=24	=24
2B-\	-sti	2g\	-sti,	2ee-\	-ti
1c	Dum	1g	dum	1ee-	dum
=25	=25	=25	=25	=25	=25
2d\	Vir-	1g	Vir-	1dd	Vir-
2Bn\	.	.	.	.	.
2e-X\	-go	2g\	-go	2ee-\	-go
!LO:LB:g=original	!	!	!	!	!
=26	=26	=26	=26	=26	=26
2Bn\	De-	2g\	De-	2dd\	De-
!	!	!	!	!LO:LB:g=original	!
2e-X\	-um	2g\	-um	2cc\	-um
2c\	et	2f\	et	2cc\	et
!	!	!LO:LB:g=original	!	!	!
=27	=27	=27	=27	=27	=27
2.Bn\	ho-	2.g\	ho-	2.dd\	ho-
4B\	-mi-	4g\	-mi-	4dd\	-mi-
2B\	-nem	2g\	-nem	2dd\	-nem
=28	=28	=28	=28	=28	=28
2Bn\	ge-	1g	ge-	1dd	ge-
2B\	.	.	.	.	.
2c\	-nu-	2e-\	-nu-	2cc\	-nu-
=29	=29	=29	=29	=29	=29
1c	-is-	2a-\	-i-	1.dd	-is-
.	.	1g	.	.	.
2Bn\	.	.	.	.	.
=30	=30	=30	=30	=30	=30
2c\	-ti	2g\	-sti	2ee-\	-ti
!	!	!	!	!LO:SIC:v:s=1b-	!
2B-X\	Dum	1g	dum	1b	dum
2e-\	.	.	.	.	.
=31	=31	=31	=31	=31	=31
!	!	!	!	!LO:SIC:v:s=1b-	!
2B-\	vir-	1f	Vir-	1b	Vir-
2d\	.	.	.	.	.
!	!	!	!	!LO:SIC:v:s=2b-	!
2B-\	-go	2g\	-go	2b\	-go
!LO:LB:g=original	!	!	!	!	!
=32	=32	=32	=32	=32	=32
!	!	!	!	!LO:SIC:v:s=2b-	!
2d\	De-	2f\	De-	2b\	De-
!	!	!	!	!LO:SIC:v:s=2b-	!
2B-\	-um	2g\	-um	2b\	-um
2c\	et	2e-\	et	2an\	et
!	!	!	!	!LO:LB:g=original	!
=33	=33	=33	=33	=33	=33
!	!	!	!	!LO:SIC:v:s=2.b-	!
2.d\	ho-	2.f\	ho-	2.b\	ho-
!	!	!	!	!LO:SIC:v:s=4b-	!
4d\	-mi-	4f\	-mi-	4b\	-mi-
!	!	!	!	!LO:SIC:v:s=2b-	!
2d\	-nem	2f\	-nem	2b\	-nem
!	!	!LO:LB:g=original	!	!	!
=34	=34	=34	=34	=34	=34
1F	ge-	1b-	ge-	1dd	ge-
2c\	-nu-	2a-X\	-nu-	2ee-\	-nu-
=35	=35	=35	=35	=35	=35
2c\	-is-	2a-\	-i-	1ee-	-is-
1B-	.	1f	.	.	.
.	.	.	.	2dd\	.
=36	=36	=36	=36	=36	=36
2B-\	-ti	2g\	-sti	2ee-\	-ti
2B-\	et	2g\	et	2ee-\	et
2A-X\	post	2f\	post	2dd\	post
=37	=37	=37	=37	=37	=37
1B-	par-	1g	par-	1ee-	par-
2c\	-tum	2f\	-tum	2ee-\	-tum
=38	=38	=38	=38	=38	=38
1B-	vir-	1f	Vir-	1dd	Vir-
2B-\	-go	2f\	-go	2dd\	-go
!LO:LB:g=original	!	!	!	!	!
=39	=39	=39	=39	=39	=39
2B-\	in-	2d\	in-	2f/	in-
2B-\	-vi-	2e-\	-vi-	2g/	-vi-
!	!	!	!	!LO:LB:g=original	!
2B-\	-o-	2e-\	-o-	2g\	-o-
=40	=40	=40	=40	=40	=40
1B-	-la-	1f	-la-	1a-X	-la-
2B-\	-ta	2e-\	-ta	2g\	-ta
!	!	!LO:LB:g=original	!	!	!
=41	=41	=41	=41	=41	=41
1B-	per-	2d\	per-	2f/	per-
!	!	!	!	!LO:SIC:v:s=2b-	!
.	.	2f\	.	2b\	.
!	!	!	!	!LO:SIC:v:s=2b-	!
2d\	-man-	2f\	-man-	2b\	-man-
=42	=42	=42	=42	=42	=42
!	!	!	!	!LO:SIC:v:s=2b-	!
2e-X\	-si-	4e-\	-si-	2b\	-si-
.	.	4d\	.	.	.
!	!	!	!	!LO:SIC:v:s=2b-	!
2f\	.	1c	.	2b\	.
2F/	.	.	.	2an\	.
=43	=43	=43	=43	=43	=43
!	!	!	!	!LO:SIC:v:s=1b-	!
1.B-	-sti,	1.d	-sti	1.b	-sti
=44	=44	=44	=44	=44	=44
!	!	!	!	!LO:SIC:v:s=2b-	!
2G/	in-	2e-\	in-	2b\	in-
2A-X\	-vi-	2a-X\	-vi-	2cc\	-vi-
2A-\	-o-	2a-\	-o-	2cc\	-o-
=45	=45	=45	=45	=45	=45
1B-	-la-	1g	-la-	1dd-X	-la-
!LO:LB:g=original	!	!	!	!	!
2A-X\	-ta	2e-\	-ta	2cc\	-ta
!	!	!	!	!LO:LB:g=original	!
=46	=46	=46	=46	=46	=46
!	!	!	!	!LO:SIC:v:s=2b-	!
2G/	per-	2e-\	per-	2b\	per-
2B-\	.	2g\	.	2ee-\	.
2B-\	-man-	2e-\	-man-	2ee-\	-man-
=47	=47	=47	=47	=47	=47
2c\	-si-	1.f	-si-	1ee-	-si-
1B-	.	.	.	.	.
.	.	.	.	2ddn\	.
!	!	!LO:LB:g=original	!	!	!
=48	=48	=48	=48	=48	=48
2B-\	-sti	2g\	-sti	2ee-\	-sti
!	!	!	!	!LO:SIC:v:s=2b-	!
2B-\	De-	2f\	De-	2b\	De-
2B-\	-i	2f\	-i	2dd\	-i
=49	=49	=49	=49	=49	=49
1.B-	ge-	4g\	ge-	1.ee-	ge-
.	.	4f\	.	.	.
.	.	4g\	.	.	.
.	.	4a-\	.	.	.
.	.	2g\	.	.	.
=50	=50	=50	=50	=50	=50
2.B-\	.	2.f\	.	2.dd\	.
4B-\	-ni-	4f\	-ni-	4dd\	ni-
2B-\	-trix	2f\	-trix	2dd\	-trix
=51	=51	=51	=51	=51	=51
1B-	in-	2d\	in-	2f/	in-
.	.	2e-\	.	2g\	.
2c\	-ter-	2f\	-ter-	2an\	-ter-
!LO:LB:g=original	!	!	!	!	!
=52	=52	=52	=52	=52	=52
!	!	!	!	!LO:SIC:v:s=1b-	!
2B-\	-ce-	1g	-ce-	1b	-ce-
2c\	.	.	.	.	.
!	!	!	!	!LO:LB:g=original	!
2d\	.	2f\	-de	2an\	-de
=53	=53	=53	=53	=53	=53
2e-\	.	2e-\	in-	2g\	in-
2c\	.	2f\	.	2an\	.
!	!	!LO:LB:g=original	!	!LO:SIC:v:s=2b-	!
2d\	-de	2g\	-ter-	2b\	-ter-
=54	=54	=54	=54	=54	=54
2c\	in-	1an	-ce-	1cc	-ce-
2d\	.	.	.	.	.
!	!	!	!	!LO:SIC:v:s=2b-	!
2e-\	-ter-	2g\	-de	2b\	-de
=55	=55	=55	=55	=55	=55
2f\	-ce-	2f\	in-	2an\	in-
!	!	!	!	!LO:SIC:v:s=2b-	!
2d\	.	2g\	.	2b\	.
2e-\	-de	2an\	-ter-	2cc\	-ter-
=56	=56	=56	=56	=56	=56
2d\	in-	1b-	-ce-	1dd	-ce-
2e-\	.	.	.	.	.
2f\	-ter-	2an\	-de	2cc\	-de
=57	=57	=57	=57	=57	=57
!	!	!	!	!LO:SIC:v:s=2b-	!
2g\	-ce-	2g\	in-	2b\	in-
2e-\	.	2a-\	.	2cc\	.
!LO:LB:g=original	!	!	!	!	!
2f\	-de	2b-\	-ter-	2dd\	-ter-
=58	=58	=58	=58	=58	=58
2E-/	in-	1cc	-ce-	1ee-X	-ce-
2F/	.	.	.	.	.
2G/	-ter-	2b-\	-de	2dd\	-de
!	!	!	!	!LO:LB:g=original	!
=59	=59	=59	=59	=59	=59
1F	-ce-	2an\	pro	2cc\	pro
.	.	2b-\	.	2dd\	.
2B-\	-de	2f\	.	2ff\	.
!	!	!LO:LB:g=original	!	!	!
=60	=60	=60	=60	=60	=60
2B-\	pro	2g\	no-	4ee-\	no-
.	.	.	.	4dd\	.
2B-\	no-	1f	.	1cc	.
2An\	.	.	.	.	.
=61	=61	=61	=61	=61	=61
2B-\	-bis	2f\	-bis	2dd\	-bis
2B-\	in-	2f\	in-	2dd\	in-
2B-\	-ter-	2f\	-ter-	2dd\	-ter-
=62	=62	=62	=62	=62	=62
!	!	!	!	!LO:SIC:v:s=2b-	!
2e-\	-ce-	2g\	-ce-	2b\	-ce-
2d\	-de	2a-X\	.	2dd\	.
2B-\	pro	2b-\	-de	2ee-\	-de
=63	=63	=63	=63	=63	=63
2c\	no-	4a-\	pro	2ee-\	pro
.	.	4g\	.	.	.
!LO:LB:g=original	!	!	!	!	!
2B-\	.	1f	no-	2ee-\	no-
2B-\	.	.	.	2dd\	.
=64	=64	=64	=64	=64	=64
1.B-;	-bis.	1.g;	-bis.	1.ee-;	-bis.
==	==	==	==	==	==
*-	*-	*-	*-	*-	*-
!!!system-decoration: [(s1,s2,s3)]
!!!AIN: 1 alto 1 soprn 1 tenor
!!!ENC: Marta Lawrence
!!!END: 2021-02-13
!!!ENC: Krzysztof Stępień
!!!END: 2021-02-09
